assets/icons/moon.svg

<svg width="16" height="16" viewBox="0 0 16 16" fill="none" xmlns="http://www.w3.org/2000/svg">
<path d="M6.04904 1.90295C6.52157 1.75189 6.81186 2.39123 6.5341 2.80226C6.01648 3.56827 5.71419 4.4917 5.71419 5.48581C5.71419 8.13678 7.86322 10.2858 10.5142 10.2858C11.5083 10.2858 12.4317 9.98352 13.1977 9.4659C13.6088 9.18814 14.2481 9.47843 14.0971 9.95096C13.2721 12.5315 10.8542 14.4001 7.9999 14.4001C4.46528 14.4001 1.5999 11.5347 1.5999 8.0001C1.5999 5.14578 3.46845 2.72794 6.04904 1.90295ZM11.1999 3.88581C10.9485 3.88581 10.7428 3.6801 10.7428 3.42867C10.7428 3.17724 10.9485 2.97153 11.1999 2.97153L12.1142 2.97153L12.1142 2.05724C12.1142 1.80581 12.3199 1.6001 12.5713 1.6001C12.8228 1.6001 13.0285 1.80581 13.0285 2.05724L13.0285 2.97153L13.9428 2.97153C14.1942 2.97153 14.3999 3.17724 14.3999 3.42867C14.3999 3.6801 14.1942 3.88581 13.9428 3.88581L13.0285 3.88581L13.0285 4.8001C13.0285 5.05153 12.8228 5.25724 12.5713 5.25724C12.3199 5.25724 12.1142 5.05153 12.1142 4.8001L12.1142 3.88581L11.1999 3.88581ZM9.37133 6.62867L9.82847 6.62867L9.82847 6.17153C9.82847 5.9201 10.0342 5.71438 10.2856 5.71438C10.537 5.71438 10.7428 5.9201 10.7428 6.17153L10.7428 6.62867L11.1999 6.62867C11.4513 6.62867 11.657 6.83438 11.657 7.08581C11.657 7.33724 11.4513 7.54295 11.1999 7.54295L10.7428 7.54295L10.7428 8.0001C10.7428 8.25153 10.537 8.45724 10.2856 8.45724C10.0342 8.45724 9.82847 8.25153 9.82847 8.0001L9.82847 7.54295L9.37133 7.54295C9.1199 7.54295 8.91419 7.33724 8.91419 7.08581C8.91419 6.83438 9.1199 6.62867 9.37133 6.62867Z" fill="url(#paint0_linear_1819_9625)"/>
<defs>
<linearGradient id="paint0_linear_1819_9625" x1="12.9227" y1="3.07726" x2="4.30735" y2="15.385" gradientUnits="userSpaceOnUse">
<stop offset="0.59" stop-color="#024AD6"/>
<stop offset="1" stop-color="#001973"/>
</linearGradient>
</defs>
</svg>

<svg xmlns="http://www.w3.org/2000/svg" width="16" height="16" fill="none" data-c="1"><path fill="url(#a)" d="M6.049 1.903c.473-.151.763.488.485.9a4.8 4.8 0 0 0 6.664 6.664c.41-.279 1.05.011.9.484A6.4 6.4 0 1 1 6.05 1.903m5.15 1.983a.46.46 0 0 1-.456-.457c0-.252.205-.457.457-.457h.914v-.915c0-.251.206-.457.457-.457.252 0 .457.206.457.457v.915h.915c.251 0 .457.205.457.457a.46.46 0 0 1-.457.457h-.915V4.8a.46.46 0 0 1-.457.457.46.46 0 0 1-.457-.457v-.914zM9.372 6.629h.457v-.457a.459.459 0 0 1 .914 0v.457h.458c.251 0 .457.205.457.457a.46.46 0 0 1-.457.457h-.457V8a.46.46 0 0 1-.457.457A.46.46 0 0 1 9.828 8v-.457h-.457a.46.46 0 0 1-.457-.457c0-.252.206-.457.457-.457"/><defs><linearGradient id="a" x1="12.923" x2="4.307" y1="3.077" y2="15.385" gradientUnits="userSpaceOnUse"><stop offset=".59" stop-color="#024AD6"/><stop offset="1" stop-color="#001973"/></linearGradient></defs></svg>
